X:1
T:Step Back (Old Molly Oxford)
C:Fieldtown
Q:1/4=140
M:2/2
L:1/8
N:pdf from berkmo website 2008-10-20
P:A(A2B2)3A2
K:D
P:A
"D" d2 cd "A" e2 f2 | "A" e2 dc "G" Bc d2  | "A" c2 A2 "G" B2 G2 | "D" A2 AG FG A2 |
"D" d2 (3edc "G" B2 AG | "D" F2 A2 d4 | "D" (3FED "A" E2 C2 | "D" D4 D4 ||
P:B
"D" AGFE D2 EF | "G" G2 A2 B2 "A" c2 | "D" dcBA "G" G2 A2 | "G" Bcdf "A" e2 ce |
"G" d2 Bd "A" c2 A2 | "G(Em)" BGEF G2 B2 | "D" AGFE D2 EF | "G" G4 G4 |]


